usr/share/icons/biglinux-icons-material-dark/16/actions/tools-wizard.svg

<svg version="1.1" viewBox="0 0 16 16" xmlns="http://www.w3.org/2000/svg">
 <defs>
  <style id="current-color-scheme" type="text/css">.ColorScheme-Text {
        color:#dedede;
      }</style>
 </defs>
 <path class="ColorScheme-Text" d="M 3.5,2 2.969,2.969 2,3.5 2.969,4.031 3.5,5 4.031,4.031 5,3.5 4.031,2.969 Z" fill="currentColor"/>
 <path d="m12.95 3.0503c-0.78347-0.78347-2.045-0.78347-2.8284 0l-7.0711 7.0711c-0.78347 0.78348-0.78347 2.045 0 2.8284 0.78347 0.78348 2.045 0.78348 2.8284 0l7.0711-7.0711c0.78348-0.78347 0.78348-2.045 0-2.8284zm-0.70711 0.70711c0.39174 0.39174 0.39174 1.0225 0 1.4142l-2.1213 2.1213-1.4142-1.4142 2.1213-2.1213c0.39174-0.39174 1.0225-0.39174 1.4142 0zm-4.2426 2.8284 1.4142 1.4142-4.2426 4.2426c-0.39174 0.39174-1.0225 0.39174-1.4142 0-0.39174-0.39174-0.39174-1.0225 0-1.4142z" class="ColorScheme-Text" fill="currentColor"/>
</svg>

<svg xmlns="http://www.w3.org/2000/svg" viewBox="0 0 16 16">
<defs>
<style id="current-color-scheme" type="text/css">
.ColorScheme-Text{color:#dedede}
</style>
</defs>
<path fill="currentColor" d="m3.5 2-.531.969L2 3.5l.969.531L3.5 5l.531-.969L5 3.5l-.969-.531Zm9.45 1.05a1.996 1.996 0 0 0-2.828 0L3.05 10.121a1.996 1.996 0 0 0 0 2.829 1.996 1.996 0 0 0 2.829 0l7.071-7.071a1.996 1.996 0 0 0 0-2.829m-.707.707a1 1 0 0 1 0 1.415l-2.121 2.12L8.707 5.88l2.122-2.122a1 1 0 0 1 1.414 0M8 6.586 9.414 8l-4.242 4.243a1 1 0 0 1-1.414 0 1 1 0 0 1 0-1.415z" class="ColorScheme-Text"/>
</svg>
